src/svg/code-outline.svg

<svg version="1.2" baseProfile="tiny" xmlns="http://www.w3.org/2000/svg" width="24" height="24" viewBox="0 0 24 24"><g><path d="M7.828 19c-.801 0-1.555-.312-2.121-.879l-5.121-5.121 5.121-5.121c1.133-1.134 3.112-1.134 4.243.001 1.169 1.168 1.169 3.072-.001 4.241l-.878.879.878.879c1.17 1.169 1.17 3.073 0 4.242-.564.567-1.318.879-2.121.879zm-4.414-6l3.707 3.707c.38.379 1.039.377 1.413.001.391-.391.391-1.025.001-1.415l-2.292-2.293 2.292-2.293c.39-.39.39-1.024 0-1.414-.378-.379-1.036-.377-1.414 0l-3.707 3.707zM16.172 19c-.803 0-1.557-.312-2.122-.88-1.169-1.168-1.169-3.072.001-4.241l.878-.879-.878-.879c-1.17-1.169-1.17-3.073 0-4.242 1.129-1.133 3.109-1.134 4.242 0l5.121 5.121-5.121 5.121c-.566.567-1.32.879-2.121.879zm-.001-10c-.267 0-.518.104-.705.292-.391.391-.391 1.025-.001 1.415l2.292 2.293-2.292 2.293c-.39.39-.39 1.024 0 1.414.377.378 1.035.379 1.414 0l3.707-3.707-3.707-3.707c-.19-.189-.441-.293-.708-.293z"/></g></svg>

<?xml version="1.0" encoding="iso-8859-1"?>
<!-- Generator: Adobe Illustrator 16.2.1, SVG Export Plug-In . SVG Version: 6.00 Build 0)  -->
<svg version="1.2" baseProfile="tiny" xmlns="http://www.w3.org/2000/svg" xmlns:xlink="http://www.w3.org/1999/xlink" x="0px"
	 y="0px" width="24px" height="24px" viewBox="0 0 24 24" xml:space="preserve">
<g id="Layer_1">
	<g>
		<g>
			<path d="M7.828,19c-0.801,0-1.555-0.312-2.121-0.879L0.586,13l5.121-5.121C6.84,6.745,8.819,6.745,9.95,7.88
				c1.169,1.168,1.169,3.072-0.001,4.241L9.071,13l0.878,0.879c1.17,1.169,1.17,3.073,0,4.242C9.385,18.688,8.631,19,7.828,19z
				 M3.414,13l3.707,3.707c0.38,0.379,1.039,0.377,1.413,0.001c0.391-0.391,0.391-1.025,0.001-1.415L6.243,13l2.292-2.293
				c0.39-0.39,0.39-1.024,0-1.414c-0.378-0.379-1.036-0.377-1.414,0L3.414,13z"/>
		</g>
	</g>
	<g>
		<g>
			<path d="M16.172,19c-0.803,0-1.557-0.312-2.122-0.88c-1.169-1.168-1.169-3.072,0.001-4.241L14.929,13l-0.878-0.879
				c-1.17-1.169-1.17-3.073,0-4.242c1.129-1.133,3.109-1.134,4.242,0L23.414,13l-5.121,5.121C17.727,18.688,16.973,19,16.172,19z
				 M16.171,9c-0.267,0-0.518,0.104-0.705,0.292c-0.391,0.391-0.391,1.025-0.001,1.415L17.757,13l-2.292,2.293
				c-0.39,0.39-0.39,1.024,0,1.414c0.377,0.378,1.035,0.379,1.414,0L20.586,13l-3.707-3.707C16.689,9.104,16.438,9,16.171,9z"/>
		</g>
	</g>
</g>
<g id="nyt_x5F_exporter_x5F_info" display="none">
</g>
</svg>
